X:1
T: Boys of Clones
C:
R:Jig
Q:180
K:C
M:6/8
L:1/16
|:g2|f2A2A2 e2A2A2|d2B2A2 A4g2|f2A2A2 e2A2A2|d2B2A2 A4g2|
f2A2A2 e2A2A2|d2e2f2 g2f2g2|f2a2f2 g2f2e2|d2B2G2 G4:|
|:d2|d2^c2d2 B2A2B2|d2B2A2 A4B2|d2^c2d2 B2A2B2|d2B2A2 A4B2|
d2^c2d2 B2A2B2|d2e2f2 g2f2g2|f2a2f2 g2f2e2|d2B2G2 G4:|
